X:183
T:Uncle Ned the Rambler* (j)
B:NFID.233b ("untitled jig")
183uncle
S:PT
L:1/8
M:6/8
R:jig
Q:320
K:A=G
A/B/|c2A BAG|EAA EAB|cBc dcd|eaf ged|
c2A BAG|EAA EAB|ceg dBG|EA^G A2:|
B|cBc dcd|eaf ged|ef^g a2a|aba ged|
cBc dcd|eaf ged|ceg dBG|EA^G A2:|

%%%

